assets/customers/dark/dell/dell_small.svg

<svg width="73" height="25" viewBox="0 0 73 25" fill="none" xmlns="http://www.w3.org/2000/svg">
<g clip-path="url(#clip0_19_29)">
<mask id="mask0_19_29" style="mask-type:luminance" maskUnits="userSpaceOnUse" x="0" y="0" width="232" height="30">
<path d="M231.136 0H0V30H231.136V0Z" fill="white"/>
</mask>
<g mask="url(#mask0_19_29)">
<path d="M230.681 19.2934C230.681 16.5139 229.135 15.2798 226.047 14.6616C222.96 14.0457 221.108 13.7343 221.108 11.5752C221.108 10.032 222.342 9.10481 224.506 9.10481C227.285 9.10481 228.21 10.3389 228.21 11.8843L228.519 12.1934H229.754L230.063 11.8843C230.063 8.79799 227.592 7.56163 224.504 7.56163C221.106 7.56163 219.256 9.4139 219.256 11.5775C219.256 14.0479 221.108 15.282 224.194 15.9002C227.283 16.5184 228.826 16.8275 228.826 19.298C228.826 20.8411 227.901 22.0775 224.813 22.0775C222.033 22.0775 220.799 20.532 220.799 18.6798L220.49 18.3707H219.256L218.947 18.6798C218.947 21.4593 221.108 23.6207 224.813 23.6207C228.826 23.6161 230.681 21.7639 230.681 19.2934ZM217.404 16.207L217.71 15.8979V14.9729C217.71 10.6502 215.24 7.56163 210.917 7.56163C206.594 7.56163 204.124 10.6502 204.124 14.9729V15.5889C204.124 19.9116 206.285 23.6161 211.226 23.6161C215.549 23.6161 217.092 20.8366 217.401 18.9843L217.092 18.6752H215.858L215.549 18.9843C214.931 20.8366 213.697 22.073 211.226 22.073C207.21 22.073 205.976 18.3684 205.976 16.5161L206.285 16.207H217.404ZM215.551 14.6616H206.288L205.979 14.3525C205.979 12.1911 207.213 9.10481 210.919 9.10481C214.624 9.10481 215.86 12.1911 215.86 14.3525L215.551 14.6616ZM201.965 22.998V8.17526L201.656 7.86617H200.422L200.113 8.17526V22.998L200.422 23.307H201.656L201.965 22.998ZM201.965 5.0889V3.23663L201.656 2.92753H200.422L200.113 3.23663V5.0889L200.422 5.39799H201.656L201.965 5.0889ZM190.233 22.073C187.144 22.073 185.292 19.9116 185.292 15.5889C185.292 11.2661 187.144 9.10481 190.233 9.10481C193.319 9.10481 195.172 11.2661 195.172 15.5889C195.172 19.9093 193.319 22.073 190.233 22.073ZM195.172 21.1457C195.172 25.1593 194.244 28.248 190.54 28.248C187.76 28.248 186.835 27.0139 186.526 25.4684L186.217 25.1593H184.983L184.674 25.4684C184.983 27.9389 186.835 29.7911 190.54 29.7911C194.556 29.7911 197.024 27.3207 197.024 21.1457V8.17526L196.715 7.86617H195.788L195.479 8.17526L195.169 10.0298H194.86C194.244 8.79572 192.699 7.55935 189.919 7.55935C185.597 7.55935 183.435 10.957 183.435 15.5889C183.435 20.2184 185.597 23.6161 189.919 23.6161C192.699 23.6161 194.242 22.382 194.86 21.1457H195.172ZM175.104 9.10481C178.19 9.10481 180.351 11.5752 180.351 15.5889C180.351 19.6025 178.19 22.073 175.104 22.073C172.015 22.073 169.854 19.6025 169.854 15.5889C169.854 11.5752 172.015 9.10481 175.104 9.10481ZM175.104 23.6161C179.117 23.6161 182.204 20.8366 182.204 15.5889C182.204 10.3411 179.117 7.55935 175.104 7.55935C171.088 7.55935 168.001 10.3389 168.001 15.5889C168.001 20.8366 171.09 23.6161 175.104 23.6161ZM165.84 22.998V2.00254L165.531 1.69344H164.297L163.988 2.00254V23.0002L164.297 23.3093H165.531L165.84 22.998ZM154.726 9.10481C157.813 9.10481 159.974 11.5752 159.974 15.5889C159.974 19.6025 157.813 22.073 154.726 22.073C151.638 22.073 149.476 19.6025 149.476 15.5889C149.476 11.5752 151.638 9.10481 154.726 9.10481ZM154.726 23.6161C158.74 23.6161 161.829 20.8366 161.829 15.5889C161.829 10.3411 158.74 7.55935 154.726 7.55935C150.713 7.55935 147.624 10.3389 147.624 15.5889C147.624 20.8366 150.713 23.6161 154.726 23.6161ZM145.772 22.998V13.7343C145.772 9.72072 143.61 7.55935 140.215 7.55935C138.054 7.55935 136.199 8.48663 135.274 10.0298H134.965L134.658 8.17526L134.349 7.86617H133.422L133.113 8.17526V22.998L133.422 23.307H134.658L134.965 22.998V14.6616C134.965 11.2639 136.51 9.10481 139.906 9.10481C142.376 9.10481 143.919 10.6479 143.919 13.7343V22.998L144.229 23.307H145.463L145.772 22.998ZM130.024 22.998V13.7343C130.024 9.72072 127.863 7.55935 124.467 7.55935C122.306 7.55935 120.454 8.48663 119.526 10.0298H119.217V2.00254L118.908 1.69344H117.674L117.365 2.00254V23.0002L117.674 23.3093H118.908L119.217 23.0002V14.6616C119.217 11.2639 120.763 9.10481 124.158 9.10481C126.629 9.10481 128.172 10.6479 128.172 13.7343V22.998L128.481 23.307H129.717L130.024 22.998ZM103.472 15.5889C103.472 11.2661 105.633 9.10481 108.719 9.10481C111.806 9.10481 113.042 10.957 113.349 12.8093L113.658 13.1184H114.894L115.204 12.8093C114.894 9.72299 112.424 7.56163 108.719 7.56163C104.706 7.56163 101.619 10.032 101.619 15.5911C101.619 21.148 104.706 23.6184 108.719 23.6184C112.424 23.6184 114.894 21.457 115.204 18.3707L114.894 18.0616H113.658L113.349 18.3707C113.04 20.2229 111.806 22.0752 108.719 22.0752C105.631 22.073 103.472 19.9093 103.472 15.5889ZM100.074 16.207L100.383 15.8979V14.9729C100.383 10.6502 97.9127 7.56163 93.5877 7.56163C89.2672 7.56163 86.7945 10.6502 86.7945 14.9729V15.5889C86.7945 19.9116 88.9558 23.6161 93.8968 23.6161C98.2195 23.6161 99.7627 20.8366 100.072 18.9843L99.7627 18.6752H98.5286L98.2195 18.9843C97.6036 20.8366 96.3672 22.073 93.8968 22.073C89.8831 22.073 88.649 18.3684 88.649 16.5161L88.9581 16.207H100.074ZM98.2217 14.6616H88.9581L88.649 14.3525C88.649 12.1911 89.8831 9.10481 93.5877 9.10481C97.2945 9.10481 98.5286 12.1911 98.5286 14.3525L98.2217 14.6616ZM89.9013 2.92753V2.00254L89.5922 1.69344H73.5354L73.2263 2.00254V2.92981L73.5354 3.2389H80.3286L80.6377 3.54799V23.0002L80.9468 23.3093H82.1808L82.4899 23.0002V3.54572L82.799 3.23663H89.5922L89.9013 2.92753ZM73.2263 19.0116V23.307H59.2831V1.69344H64.1922V19.0116H73.2263ZM8.76039 23.307C13.7899 23.307 18.0172 19.8707 19.2218 15.2207L31.449 24.773L43.6695 15.2252V23.307H57.6127V19.0116H48.5786V1.69344H43.6695V9.77526L31.949 18.932L29.3286 16.8843L34.9377 12.5002L41.0468 7.72753L37.5604 5.00026L25.8377 14.1593L23.2172 12.1116L34.9377 2.95481L31.449 0.227539L19.2218 9.77981C18.0172 5.12981 13.7899 1.69344 8.76039 1.69344H-0.000976562V23.307H8.76039ZM4.90811 19.0116V5.9889H8.76039C12.0172 5.9889 14.6581 8.90481 14.6581 12.5002C14.6581 16.0957 12.0172 19.0116 8.76039 19.0116H4.90811Z" fill="url(#paint0_linear_19_29)"/>
</g>
</g>
<defs>
<linearGradient id="paint0_linear_19_29" x1="130.878" y1="0.227538" x2="232.594" y2="18.5566" gradientUnits="userSpaceOnUse">
<stop stop-color="#FCFCFD"/>
<stop offset="1" stop-color="#E0E1E6"/>
</linearGradient>
<clipPath id="clip0_19_29">
<rect width="73" height="25" fill="white"/>
</clipPath>
</defs>
</svg>

<svg xmlns="http://www.w3.org/2000/svg" width="73" height="25" fill="none" viewBox="0 0 73 25"><g clip-path="url(#a)"><mask id="b" width="232" height="30" x="0" y="0" maskUnits="userSpaceOnUse" style="mask-type:luminance"><path fill="#fff" d="M231.136 0H0v30h231.136z"/></mask><g mask="url(#b)"><path fill="url(#c)" d="M230.681 19.293c0-2.78-1.546-4.013-4.634-4.631-3.087-.616-4.939-.928-4.939-3.087 0-1.543 1.234-2.47 3.398-2.47 2.779 0 3.704 1.234 3.704 2.78l.309.308h1.235l.309-.309c0-3.086-2.471-4.322-5.559-4.322-3.398 0-5.248 1.852-5.248 4.016 0 2.47 1.852 3.704 4.938 4.322 3.089.618 4.632.928 4.632 3.398 0 1.543-.925 2.78-4.013 2.78-2.78 0-4.014-1.546-4.014-3.398l-.309-.31h-1.234l-.309.31c0 2.78 2.161 4.94 5.866 4.94 4.013-.004 5.868-1.856 5.868-4.327m-13.277-3.086.306-.31v-.924c0-4.323-2.47-7.411-6.793-7.411s-6.793 3.088-6.793 7.41v.617c0 4.323 2.161 8.027 7.102 8.027 4.323 0 5.866-2.78 6.175-4.632l-.309-.309h-1.234l-.309.31c-.618 1.852-1.852 3.088-4.323 3.088-4.016 0-5.25-3.705-5.25-5.557l.309-.309zm-1.853-1.545h-9.263l-.309-.31c0-2.16 1.234-5.247 4.94-5.247 3.705 0 4.941 3.086 4.941 5.247zm-13.586 8.336V8.175l-.309-.309h-1.234l-.309.31v14.822l.309.309h1.234zm0-17.91v-1.85l-.309-.31h-1.234l-.309.31V5.09l.309.309h1.234zm-11.732 16.985c-3.089 0-4.941-2.161-4.941-6.484s1.852-6.484 4.941-6.484c3.086 0 4.939 2.161 4.939 6.484 0 4.32-1.853 6.484-4.939 6.484m4.939-.927c0 4.013-.928 7.102-4.632 7.102-2.78 0-3.705-1.234-4.014-2.78l-.309-.309h-1.234l-.309.31c.309 2.47 2.161 4.322 5.866 4.322 4.016 0 6.484-2.47 6.484-8.645V8.176l-.309-.31h-.927l-.309.31-.31 1.854h-.309c-.616-1.234-2.161-2.47-4.941-2.47-4.322 0-6.484 3.397-6.484 8.029 0 4.63 2.162 8.027 6.484 8.027 2.78 0 4.323-1.234 4.941-2.47zM175.104 9.105c3.086 0 5.247 2.47 5.247 6.484s-2.161 6.484-5.247 6.484c-3.089 0-5.25-2.47-5.25-6.484s2.161-6.484 5.25-6.484m0 14.511c4.013 0 7.1-2.78 7.1-8.027 0-5.248-3.087-8.03-7.1-8.03-4.016 0-7.103 2.78-7.103 8.03 0 5.248 3.089 8.027 7.103 8.027m-9.264-.618V2.003l-.309-.31h-1.234l-.309.31V23l.309.31h1.234zM154.726 9.105c3.087 0 5.248 2.47 5.248 6.484s-2.161 6.484-5.248 6.484-5.25-2.47-5.25-6.484 2.162-6.484 5.25-6.484m0 14.511c4.014 0 7.103-2.78 7.103-8.027 0-5.248-3.089-8.03-7.103-8.03s-7.102 2.78-7.102 8.03c0 5.248 3.089 8.027 7.102 8.027m-8.954-.618v-9.264c0-4.013-2.162-6.175-5.557-6.175-2.161 0-4.016.928-4.941 2.47h-.309l-.307-1.854-.309-.309h-.927l-.309.31v14.822l.309.309h1.236l.307-.309v-8.336c0-3.398 1.545-5.557 4.941-5.557 2.47 0 4.013 1.543 4.013 4.63v9.263l.31.309h1.234zm-15.748 0v-9.264c0-4.013-2.161-6.175-5.557-6.175-2.161 0-4.013.928-4.941 2.47h-.309V2.004l-.309-.31h-1.234l-.309.31V23l.309.31h1.234l.309-.31v-8.338c0-3.398 1.546-5.557 4.941-5.557 2.471 0 4.014 1.543 4.014 4.63v9.263l.309.309h1.236zm-26.552-7.41c0-4.322 2.161-6.483 5.247-6.483 3.087 0 4.323 1.852 4.63 3.704l.309.31h1.236l.31-.31c-.31-3.086-2.78-5.247-6.485-5.247-4.013 0-7.1 2.47-7.1 8.03 0 5.556 3.087 8.026 7.1 8.026 3.705 0 6.175-2.161 6.485-5.247l-.31-.31h-1.236l-.309.31c-.309 1.852-1.543 3.704-4.63 3.704-3.088-.002-5.247-2.166-5.247-6.486m-3.398.619.309-.31v-.924c0-4.323-2.47-7.411-6.795-7.411-4.32 0-6.793 3.088-6.793 7.41v.617c0 4.323 2.16 8.027 7.102 8.027 4.322 0 5.866-2.78 6.175-4.632l-.31-.309H98.53l-.31.31c-.615 1.852-1.852 3.088-4.322 3.088-4.014 0-5.248-3.705-5.248-5.557l.31-.309zm-1.852-1.545h-9.264l-.309-.31c0-2.16 1.234-5.247 4.939-5.247 3.707 0 4.94 3.086 4.94 5.247zm-8.32-11.734v-.925l-.31-.31H73.535l-.309.31v.927l.31.309h6.793l.309.309V23l.309.31h1.234l.309-.31V3.546l.309-.31h6.793zM73.225 19.012v4.295H59.283V1.693h4.91v17.319zM8.76 23.307c5.03 0 9.257-3.436 10.462-8.086l12.227 9.552 12.22-9.548v8.082h13.944v-4.295h-9.034V1.693h-4.91v8.082l-11.72 9.157-2.62-2.048 5.609-4.384 6.109-4.772L37.56 5l-11.722 9.16-2.62-2.048 11.72-9.157L31.449.228 19.222 9.78C18.017 5.13 13.79 1.693 8.76 1.693H0v21.614zm-3.852-4.295V5.989H8.76c3.257 0 5.898 2.916 5.898 6.511s-2.64 6.512-5.898 6.512z"/></g></g><defs><linearGradient id="c" x1="130.878" x2="232.594" y1=".228" y2="18.557" gradientUnits="userSpaceOnUse"><stop stop-color="#FCFCFD"/><stop offset="1" stop-color="#E0E1E6"/></linearGradient><clipPath id="a"><path fill="#fff" d="M0 0h73v25H0z"/></clipPath></defs></svg>
